X:115
T:La Rotta
L:1/16
M:2/4
N:Anon C14 Italian
Z:Andy Hornby
%%TUNEURL: http://www.leeds.ac.uk/music/Info/RRTuneBk/gettune/00000d9a.html
%%ID:00000d9a
K:D
Bc|d2cd B2e2|edcd B2BA|1AGGF FEDE|F6:|2AGGF FEED|E6:|
EF|G2AB B2Bc|d2cd B2BA|1AGGF FEDE|F6:|2AGGF FEED|E6:|
